X: 9
T: Lady Tersichens Rant
%%VWML:Wrights-3753-p5-0
F: http://www.vwml.org/record/Wrights/3753/p5
%R: reel
B: Daniel Wright "Wright's Compleat Collection of Celebrated Country Dances" 1740 p.5
S: http://library.efdss.org/cgi-bin/dancebooks.cgi
Z: 2014 John Chambers <jc:trillian.mit.edu>
M: C
L: 1/8
K: Edor
%-------------------------
[|\
EEGE A/A/A AB | EGGB c/c/c ce |\
dB gB A/A/A AB | EcBA G2E2 |]|\
gdge agab | gadf g2e2 |
gdge agab | gadf (g2 g/a/)b |\
gegB A/A/A AB | EEGB c/c/c ce |\
dBgB A/A/A AB | EcBA F2D2 |]
%-------------------------
%%begintext align
%% Foot it cross ways, first Cu. cross over two
%% Cu. lead up to the top and foot a little; cast of %% one Cu. foot it and back to back, and right %% Hands and left with the uppermost Cu. %%endtext
%------------------------- %%sep 2 4 300
T: Andrew Kerr
T: Longways for as many as will.
%R: slip-jig
B: Daniel Wright "Wright's Compleat Collection of Celebrated Country Dances" 1740 p.5
S: http://library.efdss.org/cgi-bin/dancebooks.cgi
Z: 2014 John Chambers <jc:trillian.mit.edu>
N: There's a final repeat sign, but no begin repeat signs at all. Not fixed.
M: 9/8
L: 1/8
K: G
%-------------------------
[|\
B2d dBG dBG | B2e (ef)g f2A |\
B2d def efg | D2G GAB A2G |]
[|\
g2d dBG dBG | g2e eae f2d |\
gfe dBd def | g2G GAB A2G :|
%-------------------------
%%begintext align
%% The 1st Cu. foot it and cast off one Cu. and turn .|
%% Foot it and cast off the 3d. Cu. and turn :| lead up to
%% the top cast off and turn. Right hand and left with
%% the 2d Cu. .| the 1st Man foot it with the 3d Wo. and
%% turn the 1st Wo. and 2d Man at the same time the
%% one Man foot it with the 2d. Wo. the 1st Wo. the 3d
%% Man :| Right Hand and left with the 3d Cu. then
%% Hands round all six till you come into the 2d Cu.
%% Place :|:
%%endtext
%-------------------------
%%sep 2 4 300
